X: 1
T:Old Lancaster Hornpipe
M:3/2
L:1/4
O:England
A:North-West
R:Triple Hornpipe
K:D
BAG| F>ED fed| eE2B AG| F>EDf ed/c/| d3::
BAG| FAGBAd| eE2BAG| FAGBAB/c/| d3::
fga| f>edfed| eE2fga| f>edfed/c/| d3::
L:1/8
A2B2c2| d2dc d2dc defg| a2a^g a2ag aba=g| f2ef gfed cABc| d6 ::
B2A2G2| F2AF BFAB dcBA| G2E4B2 A2G2| F2AF BFAB cBAG| F2D4:|
